skills/media-use/luts/bleach-bypass.cube
TITLE "media-use parametric grade"
DOMAIN_MIN 0 0 0
DOMAIN_MAX 1 1 1
LUT_3D_SIZE 9
0.000000 0.000000 0.000000
0.000000 0.000000 0.000000
0.128616 0.008940 0.008940
0.261427 0.018171 0.018171
0.394238 0.027402 0.027402
0.527049 0.036633 0.036633
0.659860 0.045864 0.045864
0.792671 0.055095 0.055095
0.795276 0.055276 0.055276
0.000000 0.000000 0.000000
0.000000 0.000000 0.000000
0.128616 0.008940 0.008940
0.261427 0.018171 0.018171
0.394238 0.027402 0.027402
0.527049 0.036633 0.036633
0.659860 0.045864 0.045864
0.792671 0.055095 0.055095
0.795276 0.055276 0.055276
0.030073 0.149749 0.030073
0.030073 0.149749 0.030073
0.158689 0.158689 0.039013
0.291500 0.167920 0.048244
0.424311 0.177151 0.057475
0.557122 0.186382 0.066706
0.689933 0.195613 0.075937
0.822744 0.204844 0.085168
0.825349 0.205025 0.085349
0.061127 0.304383 0.061127
0.061127 0.304383 0.061127
0.189743 0.313323 0.070067
0.322554 0.322554 0.079298
0.455365 0.331785 0.088529
0.588176 0.341016 0.097760
0.720987 0.350247 0.106991
0.853798 0.359478 0.116222
0.856403 0.359659 0.116403
0.092181 0.459017 0.092181
0.092181 0.459017 0.092181
0.220797 0.467957 0.101121
0.353608 0.477188 0.110352
0.486419 0.486419 0.119583
0.619230 0.495650 0.128814
0.752041 0.504881 0.138045
0.884852 0.514112 0.147276
0.887457 0.514293 0.147457
0.123235 0.613651 0.123235
0.123235 0.613651 0.123235
0.251851 0.622591 0.132175
0.384662 0.631822 0.141406
0.517473 0.641053 0.150637
0.650284 0.650284 0.159868
0.783095 0.659515 0.169099
0.915906 0.668746 0.178330
0.918511 0.668927 0.178511
0.154289 0.768285 0.154289
0.154289 0.768285 0.154289
0.282905 0.777225 0.163228
0.415716 0.786456 0.172460
0.548527 0.795687 0.181691
0.681338 0.804918 0.190922
0.814149 0.814149 0.200153
0.946960 0.823380 0.209384
0.949565 0.823561 0.209565
0.185343 0.922919 0.185343
0.185343 0.922919 0.185343
0.313959 0.931859 0.194282
0.446770 0.941090 0.203514
0.579581 0.950321 0.212745
0.712392 0.959552 0.221976
0.845203 0.968783 0.231207
0.978014 0.978014 0.240438
0.980619 0.978195 0.240619
0.185952 0.925952 0.185952
0.185952 0.925952 0.185952
0.314568 0.934892 0.194892
0.447379 0.944123 0.204123
0.580190 0.953354 0.213354
0.713001 0.962585 0.222585
0.845812 0.971816 0.231816
0.978623 0.981047 0.241047
0.981228 0.981228 0.241228
0.000000 0.000000 0.000000
0.000000 0.000000 0.000000
0.128616 0.008940 0.008940
0.261427 0.018171 0.018171
0.394238 0.027402 0.027402
0.527049 0.036633 0.036633
0.659860 0.045864 0.045864
0.792671 0.055095 0.055095
0.795276 0.055276 0.055276
0.000000 0.000000 0.000000
0.000000 0.000000 0.000000
0.128616 0.008940 0.008940
0.261427 0.018171 0.018171
0.394238 0.027402 0.027402
0.527049 0.036633 0.036633
0.659860 0.045864 0.045864
0.792671 0.055095 0.055095
0.795276 0.055276 0.055276
0.030073 0.149749 0.030073
0.030073 0.149749 0.030073
0.158689 0.158689 0.039013
0.291500 0.167920 0.048244
0.424311 0.177151 0.057475
0.557122 0.186382 0.066706
0.689933 0.195613 0.075937
0.822744 0.204844 0.085168
0.825349 0.205025 0.085349
0.061127 0.304383 0.061127
0.061127 0.304383 0.061127
0.189743 0.313323 0.070067
0.322554 0.322554 0.079298
0.455365 0.331785 0.088529
0.588176 0.341016 0.097760
0.720987 0.350247 0.106991
0.853798 0.359478 0.116222
0.856403 0.359659 0.116403
0.092181 0.459017 0.092181
0.092181 0.459017 0.092181
0.220797 0.467957 0.101121
0.353608 0.477188 0.110352
0.486419 0.486419 0.119583
0.619230 0.495650 0.128814
0.752041 0.504881 0.138045
0.884852 0.514112 0.147276
0.887457 0.514293 0.147457
0.123235 0.613651 0.123235
0.123235 0.613651 0.123235
0.251851 0.622591 0.132175
0.384662 0.631822 0.141406
0.517473 0.641053 0.150637
0.650284 0.650284 0.159868
0.783095 0.659515 0.169099
0.915906 0.668746 0.178330
0.918511 0.668927 0.178511
0.154289 0.768285 0.154289
0.154289 0.768285 0.154289
0.282905 0.777225 0.163228
0.415716 0.786456 0.172460
0.548527 0.795687 0.181691
0.681338 0.804918 0.190922
0.814149 0.814149 0.200153
0.946960 0.823380 0.209384
0.949565 0.823561 0.209565
0.185343 0.922919 0.185343
0.185343 0.922919 0.185343
0.313959 0.931859 0.194282
0.446770 0.941090 0.203514
0.579581 0.950321 0.212745
0.712392 0.959552 0.221976
0.845203 0.968783 0.231207
0.978014 0.978014 0.240438
0.980619 0.978195 0.240619
0.185952 0.925952 0.185952
0.185952 0.925952 0.185952
0.314568 0.934892 0.194892
0.447379 0.944123 0.204123
0.580190 0.953354 0.213354
0.713001 0.962585 0.222585
0.845812 0.971816 0.231816
0.978623 0.981047 0.241047
0.981228 0.981228 0.241228
0.003036 0.003036 0.122712
0.003036 0.003036 0.122712
0.131652 0.011975 0.131652
0.264463 0.021206 0.140883
0.397274 0.030438 0.150114
0.530085 0.039669 0.159345
0.662896 0.048900 0.168576
0.795707 0.058131 0.177807
0.798312 0.058312 0.177988
0.003036 0.003036 0.122712
0.003036 0.003036 0.122712
0.131652 0.011975 0.131652
0.264463 0.021206 0.140883
0.397274 0.030438 0.150114
0.530085 0.039669 0.159345
0.662896 0.048900 0.168576
0.795707 0.058131 0.177807
0.798312 0.058312 0.177988
0.033109 0.152785 0.152785
0.033109 0.152785 0.152785
0.161725 0.161725 0.161725
0.294536 0.170956 0.170956
0.427347 0.180187 0.180187
0.560158 0.189418 0.189418
0.692969 0.198649 0.198649
0.825780 0.207880 0.207880
0.828385 0.208061 0.208061
0.064163 0.307419 0.183839
0.064163 0.307419 0.183839
0.192779 0.316359 0.192779
0.325590 0.325590 0.202010
0.458401 0.334821 0.211241
0.591212 0.344052 0.220472
0.724023 0.353283 0.229703
0.856834 0.362514 0.238934
0.859439 0.362695 0.239115
0.095217 0.462053 0.214893
0.095217 0.462053 0.214893
0.223833 0.470993 0.223833
0.356644 0.480224 0.233064
0.489455 0.489455 0.242295
0.622266 0.498686 0.251526
0.755077 0.507917 0.260757
0.887888 0.517148 0.269988
0.890493 0.517329 0.270169
0.126271 0.616687 0.245947
0.126271 0.616687 0.245947
0.254887 0.625627 0.254887
0.387698 0.634858 0.264118
0.520509 0.644089 0.273349
0.653320 0.653320 0.282580
0.786131 0.662551 0.291811
0.918942 0.671782 0.301042
0.921547 0.671963 0.301223
0.157325 0.771321 0.277001
0.157325 0.771321 0.277001
0.285941 0.780261 0.285941
0.418752 0.789492 0.295172
0.551563 0.798723 0.304403
0.684374 0.807954 0.313634
0.817185 0.817185 0.322865
0.949996 0.826416 0.332096
0.952601 0.826597 0.332277
0.188379 0.925955 0.308055
0.188379 0.925955 0.308055
0.316995 0.934895 0.316995
0.449806 0.944126 0.326226
0.582617 0.953357 0.335457
0.715428 0.962588 0.344688
0.848239 0.971819 0.353919
0.981050 0.981050 0.363150
0.983655 0.981231 0.363331
0.188988 0.928988 0.308664
0.188988 0.928988 0.308664
0.317604 0.937927 0.317604
0.450415 0.947158 0.326835
0.583226 0.956390 0.336066
0.716037 0.965621 0.345297
0.848848 0.974852 0.354528
0.981659 0.984083 0.363759
0.984264 0.984264 0.363940
0.006171 0.006171 0.249427
0.006171 0.006171 0.249427
0.134787 0.015110 0.258367
0.267598 0.024341 0.267598
0.400409 0.033573 0.276829
0.533220 0.042804 0.286060
0.666031 0.052035 0.295291
0.798842 0.061266 0.304522
0.801447 0.061447 0.304703
0.006171 0.006171 0.249427
0.006171 0.006171 0.249427
0.134787 0.015110 0.258367
0.267598 0.024341 0.267598
0.400409 0.033573 0.276829
0.533220 0.042804 0.286060
0.666031 0.052035 0.295291
0.798842 0.061266 0.304522
0.801447 0.061447 0.304703
0.036244 0.155920 0.279500
0.036244 0.155920 0.279500
0.164860 0.164860 0.288440
0.297671 0.174091 0.297671
0.430482 0.183322 0.306902
0.563293 0.192553 0.316133
0.696104 0.201784 0.325364
0.828915 0.211015 0.334595
0.831520 0.211196 0.334776
0.067298 0.310554 0.310554
0.067298 0.310554 0.310554
0.195914 0.319494 0.319494
0.328725 0.328725 0.328725
0.461536 0.337956 0.337956
0.594347 0.347187 0.347187
0.727158 0.356418 0.356418
0.859969 0.365649 0.365649
0.862574 0.365830 0.365830
0.098352 0.465188 0.341608
0.098352 0.465188 0.341608
0.226968 0.474128 0.350548
0.359779 0.483359 0.359779
0.492590 0.492590 0.369010
0.625401 0.501821 0.378241
0.758212 0.511052 0.387472
0.891023 0.520283 0.396703
0.893628 0.520464 0.396884
0.129406 0.619822 0.372662
0.129406 0.619822 0.372662
0.258022 0.628762 0.381602
0.390833 0.637993 0.390833
0.523644 0.647224 0.400064
0.656455 0.656455 0.409295
0.789266 0.665686 0.418526
0.922077 0.674917 0.427757
0.924682 0.675098 0.427938
0.160460 0.774456 0.403716
0.160460 0.774456 0.403716
0.289076 0.783396 0.412656
0.421887 0.792627 0.421887
0.554698 0.801858 0.431118
0.687509 0.811089 0.440349
0.820320 0.820320 0.449580
0.953131 0.829551 0.458811
0.955736 0.829732 0.458992
0.191514 0.929090 0.434770
0.191514 0.929090 0.434770
0.320130 0.938030 0.443710
0.452941 0.947261 0.452941
0.585752 0.956492 0.462172
0.718563 0.965723 0.471403
0.851374 0.974954 0.480634
0.984185 0.984185 0.489865
0.986790 0.984366 0.490046
0.192123 0.932123 0.435379
0.192123 0.932123 0.435379
0.320739 0.941062 0.444319
0.453550 0.950293 0.453550
0.586361 0.959525 0.462781
0.719172 0.968756 0.472012
0.851983 0.977987 0.481243
0.984794 0.987218 0.490474
0.987399 0.987399 0.490655
0.009306 0.009306 0.376142
0.009306 0.009306 0.376142
0.137922 0.018245 0.385082
0.270733 0.027476 0.394313
0.403544 0.036707 0.403544
0.536355 0.045939 0.412775
0.669166 0.055170 0.422006
0.801977 0.064401 0.431237
0.804582 0.064582 0.431418
0.009306 0.009306 0.376142
0.009306 0.009306 0.376142
0.137922 0.018245 0.385082
0.270733 0.027476 0.394313
0.403544 0.036707 0.403544
0.536355 0.045939 0.412775
0.669166 0.055170 0.422006
0.801977 0.064401 0.431237
0.804582 0.064582 0.431418
0.039379 0.159055 0.406215
0.039379 0.159055 0.406215
0.167995 0.167995 0.415155
0.300806 0.177226 0.424386
0.433617 0.186457 0.433617
0.566428 0.195688 0.442848
0.699239 0.204919 0.452079
0.832050 0.214150 0.461310
0.834655 0.214331 0.461491
0.070433 0.313689 0.437269
0.070433 0.313689 0.437269
0.199049 0.322629 0.446209
0.331860 0.331860 0.455440
0.464671 0.341091 0.464671
0.597482 0.350322 0.473902
0.730293 0.359553 0.483133
0.863104 0.368784 0.492364
0.865709 0.368965 0.492545
0.101487 0.468323 0.468323
0.101487 0.468323 0.468323
0.230103 0.477263 0.477263
0.362914 0.486494 0.486494
0.495725 0.495725 0.495725
0.628536 0.504956 0.504956
0.761347 0.514187 0.514187
0.894158 0.523418 0.523418
0.896763 0.523599 0.523599
0.132541 0.622957 0.499377
0.132541 0.622957 0.499377
0.261157 0.631897 0.508317
0.393968 0.641128 0.517548
0.526779 0.650359 0.526779
0.659590 0.659590 0.536010
0.792401 0.668821 0.545241
0.925212 0.678052 0.554472
0.927817 0.678233 0.554653
0.163595 0.777591 0.530431
0.163595 0.777591 0.530431
0.292211 0.786531 0.539371
0.425022 0.795762 0.548602
0.557833 0.804993 0.557833
0.690644 0.814224 0.567064
0.823455 0.823455 0.576295
0.956266 0.832686 0.585526
0.958871 0.832867 0.585707
0.194649 0.932225 0.561485
0.194649 0.932225 0.561485
0.323265 0.941165 0.570425
0.456076 0.950396 0.579656
0.588887 0.959627 0.588887
0.721698 0.968858 0.598118
0.854509 0.978089 0.607349
0.987320 0.987320 0.616580
0.989925 0.987501 0.616761
0.195258 0.935258 0.562094
0.195258 0.935258 0.562094
0.323874 0.944197 0.571034
0.456685 0.953428 0.580265
0.589496 0.962659 0.589496
0.722307 0.971891 0.598727
0.855118 0.981122 0.607958
0.987929 0.990353 0.617189
0.990534 0.990534 0.617370
0.012441 0.012441 0.502857
0.012441 0.012441 0.502857
0.141057 0.021380 0.511797
0.273868 0.030611 0.521028
0.406679 0.039842 0.530259
0.539490 0.049073 0.539490
0.672301 0.058305 0.548721
0.805112 0.067536 0.557952
0.807717 0.067717 0.558133
0.012441 0.012441 0.502857
0.012441 0.012441 0.502857
0.141057 0.021380 0.511797
0.273868 0.030611 0.521028
0.406679 0.039842 0.530259
0.539490 0.049073 0.539490
0.672301 0.058305 0.548721
0.805112 0.067536 0.557952
0.807717 0.067717 0.558133
0.042514 0.162190 0.532930
0.042514 0.162190 0.532930
0.171130 0.171130 0.541870
0.303941 0.180361 0.551101
0.436752 0.189592 0.560332
0.569563 0.198823 0.569563
0.702374 0.208054 0.578794
0.835185 0.217285 0.588025
0.837790 0.217466 0.588206
0.073568 0.316824 0.563984
0.073568 0.316824 0.563984
0.202184 0.325764 0.572924
0.334995 0.334995 0.582155
0.467806 0.344226 0.591386
0.600617 0.353457 0.600617
0.733428 0.362688 0.609848
0.866239 0.371919 0.619079
0.868844 0.372100 0.619260
0.104622 0.471458 0.595038
0.104622 0.471458 0.595038
0.233238 0.480398 0.603978
0.366049 0.489629 0.613209
0.498860 0.498860 0.622440
0.631671 0.508091 0.631671
0.764482 0.517322 0.640902
0.897293 0.526553 0.650133
0.899898 0.526734 0.650314
0.135676 0.626092 0.626092
0.135676 0.626092 0.626092
0.264292 0.635032 0.635032
0.397103 0.644263 0.644263
0.529914 0.653494 0.653494
0.662725 0.662725 0.662725
0.795536 0.671956 0.671956
0.928347 0.681187 0.681187
0.930952 0.681368 0.681368
0.166730 0.780726 0.657146
0.166730 0.780726 0.657146
0.295346 0.789666 0.666086
0.428157 0.798897 0.675317
0.560968 0.808128 0.684548
0.693779 0.817359 0.693779
0.826590 0.826590 0.703010
0.959401 0.835821 0.712241
0.962006 0.836002 0.712422
0.197784 0.935360 0.688200
0.197784 0.935360 0.688200
0.326399 0.944299 0.697139
0.459211 0.953531 0.706371
0.592022 0.962762 0.715602
0.724833 0.971993 0.724833
0.857644 0.981224 0.734064
0.990455 0.990455 0.743295
0.993060 0.990636 0.743476
0.198393 0.938393 0.688809
0.198393 0.938393 0.688809
0.327009 0.947332 0.697749
0.459820 0.956563 0.706980
0.592631 0.965794 0.716211
0.725442 0.975025 0.725442
0.858253 0.984257 0.734673
0.991064 0.993488 0.743904
0.993669 0.993669 0.744085
0.015576 0.015576 0.629572
0.015576 0.015576 0.629572
0.144191 0.024515 0.638511
0.277003 0.033746 0.647743
0.409814 0.042977 0.656974
0.542625 0.052208 0.666205
0.675436 0.061439 0.675436
0.808247 0.070671 0.684667
0.810852 0.070852 0.684848
0.015576 0.015576 0.629572
0.015576 0.015576 0.629572
0.144191 0.024515 0.638511
0.277003 0.033746 0.647743
0.409814 0.042977 0.656974
0.542625 0.052208 0.666205
0.675436 0.061439 0.675436
0.808247 0.070671 0.684667
0.810852 0.070852 0.684848
0.045649 0.165325 0.659645
0.045649 0.165325 0.659645
0.174264 0.174264 0.668584
0.307076 0.183496 0.677816
0.439887 0.192727 0.687047
0.572698 0.201958 0.696278
0.705509 0.211189 0.705509
0.838320 0.220420 0.714740
0.840925 0.220601 0.714921
0.076703 0.319959 0.690699
0.076703 0.319959 0.690699
0.205318 0.328898 0.699638
0.338130 0.338130 0.708870
0.470941 0.347361 0.718101
0.603752 0.356592 0.727332
0.736563 0.365823 0.736563
0.869374 0.375054 0.745794
0.871979 0.375235 0.745975
0.107757 0.474593 0.721753
0.107757 0.474593 0.721753
0.236372 0.483532 0.730692
0.369184 0.492764 0.739924
0.501995 0.501995 0.749155
0.634806 0.511226 0.758386
0.767617 0.520457 0.767617
0.900428 0.529688 0.776848
0.903033 0.529869 0.777029
0.138811 0.629227 0.752807
0.138811 0.629227 0.752807
0.267426 0.638166 0.761746
0.400238 0.647398 0.770978
0.533049 0.656629 0.780209
0.665860 0.665860 0.789440
0.798671 0.675091 0.798671
0.931482 0.684322 0.807902
0.934087 0.684503 0.808083
0.169865 0.783861 0.783861
0.169865 0.783861 0.783861
0.298480 0.792800 0.792800
0.431292 0.802032 0.802032
0.564103 0.811263 0.811263
0.696914 0.820494 0.820494
0.829725 0.829725 0.829725
0.962536 0.838956 0.838956
0.965141 0.839137 0.839137
0.200919 0.938495 0.814915
0.200919 0.938495 0.814915
0.329534 0.947434 0.823854
0.462346 0.956666 0.833086
0.595157 0.965897 0.842317
0.727968 0.975128 0.851548
0.860779 0.984359 0.860779
0.993590 0.993590 0.870010
0.996195 0.993771 0.870191
0.201528 0.941528 0.815524
0.201528 0.941528 0.815524
0.330143 0.950467 0.824463
0.462955 0.959698 0.833695
0.595766 0.968929 0.842926
0.728577 0.978160 0.852157
0.861388 0.987391 0.861388
0.994199 0.996623 0.870619
0.996804 0.996804 0.870800
0.018711 0.018711 0.756287
0.018711 0.018711 0.756287
0.147326 0.027650 0.765226
0.280137 0.036881 0.774457
0.412949 0.046112 0.783689
0.545760 0.055343 0.792920
0.678571 0.064574 0.802151
0.811382 0.073805 0.811382
0.813987 0.073987 0.811563
0.018711 0.018711 0.756287
0.018711 0.018711 0.756287
0.147326 0.027650 0.765226
0.280137 0.036881 0.774457
0.412949 0.046112 0.783689
0.545760 0.055343 0.792920
0.678571 0.064574 0.802151
0.811382 0.073805 0.811382
0.813987 0.073987 0.811563
0.048784 0.168460 0.786360
0.048784 0.168460 0.786360
0.177399 0.177399 0.795299
0.310211 0.186631 0.804531
0.443022 0.195862 0.813762
0.575833 0.205093 0.822993
0.708644 0.214324 0.832224
0.841455 0.223555 0.841455
0.844060 0.223736 0.841636
0.079838 0.323094 0.817414
0.079838 0.323094 0.817414
0.208453 0.332033 0.826353
0.341264 0.341264 0.835584
0.474076 0.350496 0.844816
0.606887 0.359727 0.854047
0.739698 0.368958 0.863278
0.872509 0.378189 0.872509
0.875114 0.378370 0.872690
0.110892 0.477728 0.848468
0.110892 0.477728 0.848468
0.239507 0.486667 0.857407
0.372318 0.495898 0.866638
0.505130 0.505130 0.875870
0.637941 0.514361 0.885101
0.770752 0.523592 0.894332
0.903563 0.532823 0.903563
0.906168 0.533004 0.903744
0.141946 0.632362 0.879522
0.141946 0.632362 0.879522
0.270561 0.641301 0.888461
0.403372 0.650532 0.897692
0.536184 0.659764 0.906924
0.668995 0.668995 0.916155
0.801806 0.678226 0.925386
0.934617 0.687457 0.934617
0.937222 0.687638 0.934798
0.173000 0.786996 0.910576
0.173000 0.786996 0.910576
0.301615 0.795935 0.919515
0.434426 0.805166 0.928746
0.567238 0.814398 0.937978
0.700049 0.823629 0.947209
0.832860 0.832860 0.956440
0.965671 0.842091 0.965671
0.968276 0.842272 0.965852
0.204053 0.941630 0.941630
0.204053 0.941630 0.941630
0.332669 0.950569 0.950569
0.465480 0.959800 0.959800
0.598292 0.969032 0.969032
0.731103 0.978263 0.978263
0.863914 0.987494 0.987494
0.996725 0.996725 0.996725
0.999329 0.996906 0.996906
0.204663 0.944663 0.942239
0.204663 0.944663 0.942239
0.333278 0.953602 0.951178
0.466089 0.962833 0.960409
0.598901 0.972064 0.969641
0.731712 0.981295 0.978872
0.864523 0.990526 0.988103
0.997334 0.999757 0.997334
0.999939 0.999939 0.997515
0.018772 0.018772 0.758772
0.018772 0.018772 0.758772
0.147388 0.027712 0.767712
0.280199 0.036943 0.776943
0.413010 0.046174 0.786174
0.545821 0.055405 0.795405
0.678632 0.064636 0.804636
0.811443 0.073867 0.813867
0.814048 0.074048 0.814048
0.018772 0.018772 0.758772
0.018772 0.018772 0.758772
0.147388 0.027712 0.767712
0.280199 0.036943 0.776943
0.413010 0.046174 0.786174
0.545821 0.055405 0.795405
0.678632 0.064636 0.804636
0.811443 0.073867 0.813867
0.814048 0.074048 0.814048
0.048845 0.168521 0.788845
0.048845 0.168521 0.788845
0.177461 0.177461 0.797785
0.310272 0.186692 0.807016
0.443083 0.195923 0.816247
0.575894 0.205154 0.825478
0.708705 0.214385 0.834709
0.841516 0.223616 0.843940
0.844121 0.223797 0.844121
0.079899 0.323155 0.819899
0.079899 0.323155 0.819899
0.208515 0.332095 0.828839
0.341326 0.341326 0.838070
0.474137 0.350557 0.847301
0.606948 0.359788 0.856532
0.739759 0.369019 0.865763
0.872570 0.378250 0.874994
0.875175 0.378431 0.875175
0.110953 0.477789 0.850953
0.110953 0.477789 0.850953
0.239569 0.486729 0.859893
0.372380 0.495960 0.869124
0.505191 0.505191 0.878355
0.638002 0.514422 0.887586
0.770813 0.523653 0.896817
0.903624 0.532884 0.906048
0.906229 0.533065 0.906229
0.142007 0.632423 0.882007
0.142007 0.632423 0.882007
0.270623 0.641363 0.890947
0.403434 0.650594 0.900178
0.536245 0.659825 0.909409
0.669056 0.669056 0.918640
0.801867 0.678287 0.927871
0.934678 0.687518 0.937102
0.937283 0.687699 0.937283
0.173061 0.787057 0.913061
0.173061 0.787057 0.913061
0.301677 0.795997 0.922000
0.434488 0.805228 0.931232
0.567299 0.814459 0.940463
0.700110 0.823690 0.949694
0.832921 0.832921 0.958925
0.965732 0.842152 0.968156
0.968337 0.842333 0.968337
0.204115 0.941691 0.944115
0.204115 0.941691 0.944115
0.332731 0.950631 0.953054
0.465542 0.959862 0.962286
0.598353 0.969093 0.971517
0.731164 0.978324 0.980748
0.863975 0.987555 0.989979
0.996786 0.996786 0.999210
0.999391 0.996967 0.999391
0.204724 0.944724 0.944724
0.204724 0.944724 0.944724
0.333340 0.953664 0.953664
0.466151 0.962895 0.962895
0.598962 0.972126 0.972126
0.731773 0.981357 0.981357
0.864584 0.990588 0.990588
0.997395 0.999819 0.999819
1.000000 1.000000 1.000000
