skills/media-use/luts/film-fade.cube
TITLE "media-use parametric grade"
DOMAIN_MIN 0 0 0
DOMAIN_MAX 1 1 1
LUT_3D_SIZE 9
0.084994 0.077114 0.094994
0.190373 0.079027 0.096907
0.295753 0.080940 0.098820
0.401133 0.082852 0.100733
0.506512 0.084765 0.102645
0.611892 0.086678 0.104558
0.717272 0.088591 0.106471
0.822651 0.090503 0.108384
0.918572 0.092236 0.110092
0.091287 0.184608 0.101288
0.196667 0.186520 0.103201
0.302047 0.188433 0.105114
0.407426 0.190346 0.107026
0.512806 0.192259 0.108939
0.618120 0.194137 0.110724
0.723227 0.195905 0.112108
0.828247 0.197627 0.113106
0.924063 0.199301 0.113671
0.097581 0.292101 0.107582
0.202960 0.294014 0.109494
0.308216 0.295861 0.111166
0.413266 0.297600 0.112439
0.518340 0.299349 0.113320
0.623668 0.301231 0.113819
0.729226 0.303232 0.113992
0.834990 0.305340 0.113896
0.931437 0.307342 0.113624
0.103305 0.399293 0.112738
0.208455 0.401083 0.113502
0.313852 0.403000 0.113900
0.419472 0.405033 0.113989
0.525292 0.407170 0.113827
0.631286 0.409398 0.113469
0.737431 0.411704 0.112974
0.843704 0.414077 0.112398
0.940545 0.416285 0.111852
0.109735 0.506844 0.113966
0.215608 0.509008 0.113740
0.321649 0.511260 0.113337
0.427833 0.513587 0.112812
0.534138 0.515977 0.112224
0.640540 0.518417 0.111629
0.747013 0.520895 0.111084
0.853535 0.523399 0.110647
0.950534 0.525690 0.110392
0.118246 0.615475 0.112645
0.224581 0.617881 0.112049
0.331006 0.620333 0.111463
0.437495 0.622820 0.110944
0.544027 0.625329 0.110549
0.650575 0.627847 0.110336
0.757117 0.630363 0.110361
0.863628 0.632863 0.110682
0.960550 0.635116 0.111280
0.127981 0.724747 0.110814
0.234520 0.727259 0.110466
0.341069 0.729778 0.110316
0.447605 0.732291 0.110421
0.554103 0.734784 0.110839
0.660539 0.737247 0.111626
0.766890 0.739666 0.112840
0.873113 0.742020 0.114502
0.969531 0.744012 0.116151
0.138089 0.834217 0.110507
0.244572 0.836703 0.111027
0.350986 0.839154 0.111932
0.457307 0.841559 0.113280
0.563456 0.843874 0.115021
0.669228 0.845991 0.116858
0.774644 0.847923 0.118764
0.880024 0.849836 0.120677
0.975962 0.851578 0.122418
0.146894 0.933681 0.113273
0.253045 0.935996 0.115013
0.358818 0.938115 0.116850
0.464235 0.940047 0.118755
0.569615 0.941960 0.120668
0.674994 0.943873 0.122581
0.780374 0.945786 0.124494
0.885754 0.947699 0.126406
0.981691 0.949440 0.128148
0.085615 0.077735 0.194549
0.190994 0.079648 0.196461
0.296374 0.081561 0.198374
0.401754 0.083473 0.200287
0.507133 0.085386 0.202200
0.612513 0.087299 0.204113
0.717893 0.089212 0.206025
0.823272 0.091125 0.207938
0.919153 0.092836 0.209569
0.091908 0.185229 0.200842
0.197288 0.187142 0.202755
0.302668 0.189054 0.204668
0.408047 0.190967 0.206581
0.513426 0.192879 0.208492
0.618674 0.194723 0.210149
0.723718 0.196458 0.211409
0.828801 0.198212 0.212277
0.924689 0.199924 0.212734
0.098202 0.292723 0.207136
0.203565 0.294627 0.209017
0.308752 0.296437 0.210554
0.413759 0.298153 0.211704
0.518918 0.299947 0.212455
0.624323 0.301868 0.212841
0.729951 0.303905 0.212921
0.835776 0.306045 0.212750
0.932272 0.308073 0.212426
0.103823 0.399860 0.211963
0.209056 0.401692 0.212602
0.314528 0.403648 0.212894
0.420216 0.405717 0.212895
0.526094 0.407884 0.212662
0.632140 0.410139 0.212254
0.738330 0.412468 0.211726
0.844638 0.414860 0.211136
0.941505 0.417081 0.210594
0.110497 0.507536 0.212849
0.216426 0.509730 0.212559
0.322517 0.512008 0.212110
0.428743 0.514357 0.211559
0.535082 0.516764 0.210962
0.641509 0.519218 0.210377
0.748001 0.521706 0.209861
0.854533 0.524215 0.209471
0.951535 0.526508 0.209275
0.119166 0.616250 0.211387
0.225533 0.618673 0.210788
0.331981 0.621137 0.210217
0.438487 0.623633 0.209732
0.545027 0.626146 0.209390
0.651576 0.628665 0.209248
0.758110 0.631177 0.209363
0.864606 0.633670 0.209792
0.961507 0.635912 0.210505
0.128976 0.725561 0.209616
0.235521 0.728077 0.209326
0.342068 0.730595 0.209252
0.448594 0.733103 0.209453
0.555075 0.735588 0.209984
0.661486 0.738038 0.210904
0.767804 0.740440 0.212268
0.873943 0.742750 0.214016
0.970241 0.744680 0.215688
0.139074 0.835028 0.209570
0.245537 0.837504 0.210209
0.351924 0.839941 0.211251
0.458210 0.842327 0.212756
0.564250 0.844585 0.214542
0.669884 0.846631 0.216406
0.775265 0.848545 0.218318
0.880645 0.850457 0.220231
0.976583 0.852199 0.221972
0.147797 0.934449 0.212749
0.253838 0.936708 0.214534
0.359475 0.938755 0.216397
0.464856 0.940669 0.218310
0.570236 0.942581 0.220222
0.675616 0.944494 0.222135
0.780995 0.946407 0.224048
0.886375 0.948320 0.225961
0.982313 0.950061 0.227702
0.086236 0.078356 0.294103
0.191615 0.080269 0.296016
0.296995 0.082182 0.297928
0.402375 0.084095 0.299841
0.507754 0.086007 0.301754
0.613134 0.087920 0.303667
0.718514 0.089833 0.305580
0.823892 0.091745 0.307489
0.919712 0.093424 0.309002
0.092530 0.185850 0.300397
0.197909 0.187763 0.302309
0.303289 0.189676 0.304222
0.408669 0.191588 0.306135
0.514029 0.193491 0.308010
0.619208 0.195297 0.309533
0.724213 0.197012 0.310669
0.829381 0.198811 0.311407
0.925340 0.200559 0.311762
0.098823 0.293344 0.306690
0.204147 0.295227 0.308494
0.309266 0.297002 0.309901
0.414280 0.298720 0.310924
0.519522 0.300557 0.311551
0.625002 0.302518 0.311831
0.730696 0.304589 0.311823
0.836581 0.306760 0.311584
0.933124 0.308812 0.311213
0.104369 0.400440 0.311145
0.209682 0.402314 0.311665
0.315227 0.404308 0.311856
0.420979 0.406410 0.311775
0.526915 0.408607 0.311479
0.633010 0.410888 0.311026
0.739241 0.413239 0.310472
0.845583 0.415648 0.309874
0.942474 0.417882 0.309341
0.111277 0.508239 0.311709
0.217262 0.510462 0.311361
0.323399 0.512764 0.310873
0.429664 0.515133 0.310300
0.536035 0.517557 0.309701
0.642485 0.520023 0.309132
0.748993 0.522519 0.308651
0.855533 0.525032 0.308315
0.952536 0.527326 0.308183
0.120097 0.617032 0.310126
0.226493 0.619469 0.309530
0.332963 0.621945 0.308981
0.439482 0.624447 0.308536
0.546028 0.626964 0.308252
0.652575 0.629482 0.308187
0.759099 0.631989 0.308398
0.865578 0.634473 0.308942
0.962456 0.636704 0.309775
0.129974 0.726377 0.308434
0.236522 0.728895 0.308208
0.343065 0.731411 0.308218
0.449579 0.733913 0.308519
0.556040 0.736388 0.309170
0.662423 0.738824 0.310228
0.768706 0.741208 0.311750
0.874732 0.743459 0.313538
0.970906 0.745324 0.315234
0.140054 0.835835 0.308670
0.246495 0.838300 0.309433
0.352852 0.840722 0.310620
0.459087 0.843082 0.312261
0.565000 0.845274 0.314071
0.670507 0.847253 0.315960
0.775887 0.849166 0.317872
0.881266 0.851078 0.319785
0.977204 0.852820 0.321527
0.148675 0.935204 0.312253
0.254590 0.937397 0.314063
0.360098 0.939377 0.315951
0.465477 0.941290 0.317864
0.570857 0.943202 0.319777
0.676237 0.945115 0.321689
0.781616 0.947028 0.323602
0.886996 0.948941 0.325515
0.982934 0.950682 0.327256
0.086857 0.078977 0.393657
0.192237 0.080890 0.395570
0.297616 0.082803 0.397483
0.402996 0.084716 0.399395
0.508376 0.086628 0.401308
0.613755 0.088541 0.403221
0.719135 0.090454 0.405134
0.824492 0.092355 0.407002
0.920248 0.094000 0.408392
0.093151 0.186471 0.399951
0.198530 0.188384 0.401864
0.303910 0.190297 0.403776
0.409290 0.192209 0.405689
0.514608 0.194090 0.407482
0.619720 0.195861 0.408876
0.724737 0.197581 0.409885
0.829988 0.199423 0.410499
0.926015 0.201206 0.410757
0.099444 0.293965 0.406244
0.204706 0.295815 0.407928
0.309761 0.297556 0.409210
0.414829 0.299303 0.410102
0.520150 0.301181 0.410610
0.625703 0.303179 0.410791
0.731462 0.305284 0.410701
0.837403 0.307484 0.410399
0.933991 0.309560 0.409987
0.104941 0.401035 0.410287
0.210333 0.402949 0.410694
0.315947 0.404980 0.410790
0.421762 0.407114 0.410633
0.527752 0.409339 0.410280
0.633894 0.411644 0.409787
0.740163 0.414015 0.409213
0.846537 0.416441 0.408614
0.943449 0.418686 0.408095
0.112077 0.508951 0.410548
0.218113 0.511201 0.410148
0.324295 0.513526 0.409626
0.430597 0.515914 0.409039
0.536996 0.518353 0.408443
0.643468 0.520831 0.407897
0.749989 0.523334 0.407456
0.856534 0.525850 0.407179
0.953535 0.528143 0.407117
0.121039 0.617818 0.408864
0.227461 0.620269 0.408277
0.333950 0.622755 0.407755
0.440480 0.625264 0.407356
0.547029 0.627782 0.407138
0.653571 0.630298 0.407156
0.760084 0.632799 0.407469
0.866542 0.635273 0.408133
0.963395 0.637491 0.409091
0.130974 0.727194 0.407272
0.237523 0.729713 0.407116
0.344059 0.732226 0.407214
0.450558 0.734720 0.407623
0.556996 0.737184 0.408400
0.663350 0.739604 0.409602
0.769578 0.741961 0.411255
0.875478 0.744145 0.413068
0.971531 0.745947 0.414787
0.141028 0.836639 0.407808
0.247444 0.839092 0.408702
0.353768 0.841497 0.410039
0.459925 0.843816 0.411774
0.565707 0.845939 0.413609
0.671128 0.847874 0.415514
0.776508 0.849787 0.417427
0.881887 0.851700 0.419339
0.977825 0.853441 0.421081
0.149513 0.935939 0.411766
0.255297 0.938063 0.413601
0.360719 0.939998 0.415505
0.466099 0.941911 0.417418
0.571478 0.943824 0.419331
0.676858 0.945736 0.421244
0.782238 0.947649 0.423156
0.887617 0.949562 0.425069
0.983555 0.951303 0.426811
0.087478 0.079598 0.493211
0.192858 0.081511 0.495124
0.298237 0.083424 0.497037
0.403617 0.085337 0.498950
0.508997 0.087250 0.500862
0.614376 0.089162 0.502775
0.719756 0.091075 0.504688
0.825068 0.092952 0.506470
0.920764 0.094566 0.507742
0.093772 0.187092 0.499505
0.199151 0.189005 0.501418
0.304531 0.190918 0.503331
0.409910 0.192830 0.505243
0.515164 0.194677 0.506911
0.620213 0.196414 0.508181
0.725289 0.198165 0.509059
0.830619 0.200048 0.509554
0.926712 0.201866 0.509721
0.100051 0.294578 0.505771
0.205243 0.296392 0.507319
0.310252 0.298108 0.508478
0.415404 0.299899 0.509240
0.520803 0.301817 0.509635
0.626425 0.303851 0.509722
0.732246 0.305989 0.509557
0.838242 0.308217 0.509198
0.934872 0.310315 0.508750
0.105540 0.401643 0.509389
0.211007 0.403596 0.509689
0.316689 0.405662 0.509697
0.422563 0.407827 0.509470
0.528605 0.410080 0.509065
0.634791 0.412407 0.508540
0.741097 0.414798 0.507951
0.847499 0.417238 0.507356
0.944430 0.419493 0.506858
0.112894 0.509673 0.509368
0.218980 0.511948 0.508923
0.325203 0.514295 0.508373
0.431540 0.516702 0.507777
0.537965 0.519154 0.507191
0.644455 0.521641 0.506672
0.750987 0.524150 0.506279
0.857535 0.526668 0.506067
0.954532 0.528959 0.506081
0.121990 0.618609 0.507603
0.228437 0.621073 0.507031
0.334941 0.623568 0.506543
0.441480 0.626081 0.506196
0.548029 0.628600 0.506048
0.654565 0.631112 0.506156
0.761062 0.633606 0.506576
0.867498 0.636068 0.507367
0.964323 0.638272 0.508457
0.131974 0.728012 0.506130
0.238522 0.730530 0.506050
0.345049 0.733039 0.506243
0.451531 0.735524 0.506765
0.557944 0.737975 0.507674
0.664265 0.740379 0.509026
0.770412 0.742693 0.510769
0.876179 0.744808 0.512607
0.972152 0.746568 0.514341
0.141994 0.837440 0.506987
0.248383 0.839879 0.508018
0.354672 0.842266 0.509511
0.460721 0.844529 0.511294
0.566367 0.846581 0.513156
0.671749 0.848495 0.515068
0.777129 0.850408 0.516981
0.882508 0.852321 0.518894
0.978446 0.854062 0.520635
0.150310 0.936652 0.511286
0.255958 0.938705 0.513147
0.361340 0.940619 0.515060
0.466720 0.942532 0.516972
0.572099 0.944445 0.518885
0.677479 0.946357 0.520798
0.782859 0.948270 0.522711
0.888238 0.950183 0.524623
0.984176 0.951924 0.526365
0.088099 0.080220 0.592766
0.193479 0.082132 0.594678
0.298858 0.084045 0.596591
0.404238 0.085958 0.598504
0.509618 0.087871 0.600417
0.614997 0.089784 0.602330
0.720376 0.091696 0.604240
0.825622 0.093538 0.605894
0.921260 0.095121 0.607053
0.094393 0.187713 0.599059
0.199773 0.189626 0.600972
0.305152 0.191539 0.602885
0.410515 0.193443 0.604764
0.515699 0.195252 0.606298
0.620706 0.196967 0.607444
0.725867 0.198762 0.608192
0.831275 0.200685 0.608576
0.927431 0.202536 0.608657
0.100635 0.295179 0.605252
0.205759 0.296957 0.606669
0.310771 0.298675 0.607702
0.416006 0.300508 0.608338
0.521480 0.302466 0.608627
0.627169 0.304535 0.608626
0.733049 0.306703 0.608392
0.839097 0.308959 0.607982
0.935767 0.311077 0.607504
0.106164 0.402264 0.608455
0.211704 0.404255 0.608654
0.317451 0.406355 0.608579
0.423382 0.408550 0.608288
0.529473 0.410828 0.607838
0.635701 0.413177 0.607286
0.742041 0.415585 0.606689
0.848468 0.418039 0.606105
0.945417 0.420303 0.605631
0.113728 0.510403 0.608172
0.219861 0.512703 0.607686
0.326124 0.515071 0.607115
0.432492 0.517493 0.606516
0.538941 0.519959 0.605945
0.645447 0.522454 0.605461
0.751987 0.524967 0.605120
0.858536 0.527486 0.604980
0.955526 0.529774 0.605075
0.122950 0.619405 0.606344
0.229418 0.621881 0.605793
0.335936 0.624383 0.605345
0.442481 0.626899 0.605057
0.549028 0.629417 0.604985
0.655554 0.631924 0.605188
0.762034 0.634409 0.605723
0.868445 0.636859 0.606646
0.965240 0.639048 0.607872
0.132976 0.728830 0.605011
0.239519 0.731347 0.605013
0.346034 0.733849 0.605307
0.452496 0.736325 0.605948
0.558882 0.738762 0.606995
0.665168 0.741147 0.608504
0.771204 0.743403 0.610290
0.876835 0.745448 0.612154
0.972774 0.747190 0.613896
0.142952 0.838237 0.606208
0.249311 0.840660 0.607383
0.355552 0.843023 0.609015
0.461475 0.845220 0.610823
0.566991 0.847204 0.612710
0.672370 0.849116 0.614622
0.777750 0.851029 0.616535
0.883130 0.852942 0.618448
0.979067 0.854683 0.620189
0.151065 0.937343 0.610815
0.256581 0.939327 0.612701
0.361961 0.941240 0.614614
0.467341 0.943153 0.616527
0.572720 0.945066 0.618439
0.678100 0.946979 0.620352
0.783480 0.948891 0.622265
0.888859 0.950804 0.624178
0.984797 0.952546 0.625919
0.088720 0.080841 0.692320
0.194100 0.082753 0.694233
0.299480 0.084666 0.696145
0.404859 0.086579 0.698058
0.510239 0.088492 0.699971
0.615619 0.090405 0.701884
0.720978 0.092307 0.703757
0.826155 0.094112 0.705277
0.921750 0.095672 0.706324
0.095014 0.188334 0.698614
0.200394 0.190247 0.700526
0.305773 0.192160 0.702439
0.411096 0.194042 0.704240
0.516213 0.195816 0.705644
0.621228 0.197536 0.706664
0.726472 0.199373 0.707287
0.831954 0.201335 0.707565
0.928171 0.203218 0.707566
0.101195 0.295769 0.704689
0.206255 0.297512 0.705981
0.311317 0.299256 0.706884
0.416633 0.301131 0.707401
0.522179 0.303126 0.707589
0.627933 0.305229 0.707506
0.733870 0.307427 0.707208
0.839967 0.309708 0.706754
0.936675 0.311846 0.706251
0.106813 0.402898 0.707487
0.212422 0.404926 0.707590
0.318232 0.407057 0.707439
0.424218 0.409281 0.707090
0.530356 0.411584 0.706600
0.636623 0.413953 0.706027
0.742994 0.416378 0.705428
0.849445 0.418844 0.704860
0.946408 0.421116 0.704418
0.114578 0.511142 0.706960
0.220756 0.513465 0.706440
0.327056 0.515852 0.705854
0.433452 0.518290 0.705258
0.539923 0.520766 0.704709
0.646442 0.523269 0.704265
0.752988 0.525785 0.703983
0.859535 0.528303 0.703920
0.956516 0.530586 0.704102
0.123917 0.620206 0.705091
0.230404 0.622691 0.704567
0.336934 0.625199 0.704164
0.443482 0.627717 0.703940
0.550025 0.630233 0.703951
0.656539 0.632734 0.704256
0.762999 0.635209 0.704910
0.869382 0.637644 0.705972
0.966145 0.639817 0.707341
0.133976 0.729648 0.703916
0.240513 0.732161 0.704007
0.347014 0.734656 0.704407
0.453454 0.737121 0.705174
0.559810 0.739542 0.706364
0.666043 0.741902 0.708009
0.771953 0.744092 0.709819
0.877457 0.746069 0.711708
0.973395 0.747811 0.713450
0.143902 0.839029 0.705473
0.250229 0.841436 0.706798
0.356393 0.843759 0.708527
0.462185 0.845887 0.710360
0.567612 0.847825 0.712264
0.672991 0.849737 0.714177
0.778371 0.851650 0.716089
0.883751 0.853563 0.718002
0.979688 0.855304 0.719744
0.151775 0.938011 0.710352
0.257203 0.939949 0.712255
0.362582 0.941861 0.714168
0.467962 0.943774 0.716081
0.573342 0.945687 0.717994
0.678721 0.947600 0.719906
0.784101 0.949513 0.721819
0.889481 0.951425 0.723732
0.985418 0.953167 0.725473
0.089341 0.081462 0.791874
0.194721 0.083375 0.793787
0.300101 0.085287 0.795700
0.405480 0.087200 0.797612
0.510860 0.089113 0.799525
0.616240 0.091026 0.801438
0.721556 0.092905 0.803228
0.826667 0.094676 0.804619
0.922267 0.096238 0.805551
0.095635 0.188956 0.798168
0.201015 0.190868 0.800081
0.306394 0.192781 0.801993
0.411654 0.194630 0.803673
0.516707 0.196370 0.804952
0.621777 0.198118 0.805840
0.727101 0.199997 0.806345
0.832655 0.201996 0.806523
0.928932 0.203910 0.806450
0.101734 0.296346 0.804083
0.206745 0.298064 0.805253
0.311891 0.299851 0.806024
0.417284 0.301766 0.806428
0.522900 0.303797 0.806522
0.628716 0.305932 0.806363
0.734708 0.308159 0.806008
0.840851 0.310464 0.805515
0.937595 0.312621 0.804993
0.107485 0.403544 0.806485
0.213162 0.405607 0.806499
0.319032 0.407770 0.806278
0.425070 0.410021 0.805877
0.531252 0.412346 0.805354
0.637555 0.414735 0.804766
0.743955 0.417174 0.804171
0.850427 0.419652 0.803625
0.947403 0.421930 0.803219
0.115444 0.511889 0.805735
0.221664 0.514234 0.805187
0.327997 0.516639 0.804591
0.434421 0.519090 0.804005
0.540910 0.521577 0.803484
0.647440 0.524085 0.803086
0.753989 0.526603 0.802869
0.860531 0.529119 0.802890
0.957501 0.531397 0.803163
0.124892 0.621009 0.803844
0.231395 0.623503 0.803353
0.337934 0.626016 0.803002
0.444483 0.628535 0.802848
0.551019 0.631047 0.802948
0.657518 0.633542 0.803360
0.763955 0.636005 0.804141
0.870308 0.638425 0.805347
0.967027 0.640575 0.806844
0.134976 0.730465 0.802849
0.241503 0.732974 0.803033
0.347987 0.735460 0.803546
0.454402 0.737912 0.804444
0.560726 0.740318 0.805785
0.666880 0.742635 0.807522
0.772658 0.744757 0.809358
0.878078 0.746690 0.811263
0.974016 0.748432 0.813004
0.144842 0.839816 0.804785
0.251134 0.842205 0.806265
0.357193 0.844473 0.808047
0.462849 0.846531 0.809906
0.568233 0.848446 0.811818
0.673613 0.850359 0.813731
0.778992 0.852271 0.815644
0.884372 0.854184 0.817556
0.980310 0.855926 0.819298
0.152440 0.938655 0.809898
0.257824 0.940570 0.811809
0.363203 0.942483 0.813722
0.468583 0.944395 0.815635
0.573963 0.946308 0.817548
0.679342 0.948221 0.819461
0.784722 0.950134 0.821373
0.890102 0.952046 0.823286
0.986039 0.953788 0.825028
0.089907 0.082027 0.882508
0.195287 0.083940 0.884421
0.300666 0.085853 0.886334
0.406046 0.087766 0.888247
0.511426 0.089678 0.890159
0.616805 0.091591 0.892072
0.722063 0.093440 0.893749
0.827116 0.095179 0.895026
0.922762 0.096765 0.895850
0.096201 0.189521 0.888802
0.201580 0.191434 0.890715
0.306947 0.193340 0.892603
0.412143 0.195155 0.894159
0.517154 0.196873 0.895327
0.622301 0.198660 0.896096
0.727695 0.200576 0.896498
0.833313 0.202608 0.896591
0.929641 0.204549 0.896454
0.102206 0.296862 0.894536
0.207214 0.298578 0.895591
0.312435 0.300404 0.896248
0.417897 0.302355 0.896554
0.523575 0.304418 0.896568
0.629446 0.306582 0.896345
0.735484 0.308833 0.895943
0.841668 0.311159 0.895420
0.938442 0.313332 0.894885
0.108117 0.404143 0.896586
0.213854 0.406237 0.896525
0.319775 0.408427 0.896244
0.425859 0.410701 0.895801
0.532079 0.413047 0.895253
0.638413 0.415452 0.894657
0.744837 0.417903 0.894070
0.851326 0.420390 0.893550
0.948311 0.422673 0.893182
0.116244 0.512575 0.895650
0.222501 0.514939 0.895082
0.328863 0.517359 0.894483
0.435308 0.519822 0.893910
0.541812 0.522316 0.893420
0.648351 0.524829 0.893069
0.754900 0.527348 0.892917
0.861435 0.529861 0.893018
0.958394 0.532132 0.893381
0.125785 0.621744 0.893756
0.232301 0.624245 0.893301
0.338845 0.626760 0.893002
0.445393 0.629279 0.892917
0.551920 0.631787 0.893104
0.658403 0.634274 0.893619
0.764818 0.636725 0.894519
0.871141 0.639130 0.895862
0.967796 0.641247 0.897439
0.135884 0.731209 0.892941
0.242401 0.733712 0.893217
0.348867 0.736190 0.893838
0.455257 0.738629 0.894861
0.561549 0.741018 0.896343
0.667606 0.743285 0.898125
0.773260 0.745341 0.899985
0.878644 0.747256 0.901897
0.974581 0.748997 0.903638
0.145688 0.840528 0.895241
0.251939 0.842896 0.896853
0.357884 0.845105 0.898656
0.463419 0.847098 0.900539
0.568798 0.849011 0.902452
0.674178 0.850924 0.904365
0.779558 0.852837 0.906278
0.884937 0.854750 0.908191
0.980875 0.856491 0.909932
0.153010 0.939222 0.900531
0.258389 0.941135 0.902444
0.363769 0.943048 0.904356
0.469149 0.944961 0.906269
0.574528 0.946874 0.908182
0.679908 0.948786 0.910095
0.785288 0.950699 0.912008
0.890667 0.952612 0.913920
0.986605 0.954353 0.915662
