skills/media-use/luts/teal-orange-blockbuster.cube
TITLE "media-use parametric grade"
DOMAIN_MIN 0 0 0
DOMAIN_MAX 1 1 1
LUT_3D_SIZE 9
0.000000 0.052659 0.094779
0.022542 0.052242 0.094362
0.184117 0.049657 0.091777
0.345692 0.047072 0.089192
0.507267 0.044487 0.086607
0.668842 0.041902 0.084022
0.830416 0.039316 0.081436
0.991991 0.036731 0.078851
1.000000 0.035983 0.078103
0.000000 0.097662 0.092262
0.020025 0.097245 0.091845
0.181600 0.094660 0.089260
0.343175 0.092075 0.086675
0.504749 0.089489 0.084089
0.666324 0.086904 0.081504
0.827899 0.084319 0.078919
0.989474 0.081734 0.076334
1.000000 0.080985 0.075585
0.000000 0.253125 0.083565
0.011328 0.252708 0.083148
0.172903 0.250123 0.080563
0.334478 0.247538 0.077978
0.496052 0.244952 0.075392
0.657655 0.242307 0.072700
0.819772 0.238536 0.067986
0.983244 0.233727 0.060618
1.000000 0.232312 0.057937
0.000000 0.408588 0.074868
0.002631 0.408171 0.074451
0.164353 0.405264 0.071289
0.326717 0.400983 0.065646
0.491278 0.396107 0.057209
0.658775 0.391217 0.046115
0.828680 0.386377 0.032929
1.000000 0.381652 0.018214
1.000000 0.380475 0.013909
0.000000 0.559633 0.056198
0.000000 0.558485 0.053448
0.168135 0.553605 0.041527
0.338786 0.548800 0.027719
0.511124 0.544133 0.012587
0.684621 0.539668 0.000000
0.858750 0.535470 0.000000
1.000000 0.531616 0.000000
1.000000 0.531374 0.000000
0.000000 0.707952 0.011421
0.021937 0.706640 0.006859
0.195725 0.702265 0.000000
0.369952 0.698181 0.000000
0.544089 0.694452 0.000000
0.717589 0.691123 0.000000
0.889909 0.688244 0.000000
1.000000 0.686516 0.000000
1.000000 0.686744 0.000000
0.004815 0.858350 0.000000
0.055116 0.857355 0.000000
0.228239 0.854174 0.000000
0.400015 0.851491 0.000000
0.569937 0.849393 0.000000
0.737480 0.847948 0.000000
0.902364 0.846668 0.000000
1.000000 0.845199 0.000000
1.000000 0.845199 0.000000
0.030278 1.000000 0.000000
0.078991 1.000000 0.000000
0.245548 1.000000 0.000000
0.409516 1.000000 0.000000
0.571298 1.000000 0.000000
0.732873 1.000000 0.000000
0.894448 1.000000 0.000000
1.000000 1.000000 0.000000
1.000000 1.000000 0.000000
0.035555 1.000000 0.000000
0.083527 1.000000 0.000000
0.247620 1.000000 0.000000
0.409437 1.000000 0.000000
0.571012 1.000000 0.000000
0.732587 1.000000 0.000000
0.894162 1.000000 0.000000
1.000000 1.000000 0.000000
1.000000 1.000000 0.000000
0.000000 0.052405 0.142045
0.022288 0.051988 0.141628
0.183863 0.049403 0.139043
0.345438 0.046818 0.136458
0.507013 0.044233 0.133873
0.668587 0.041647 0.131287
0.830162 0.039062 0.128702
0.991737 0.036477 0.126117
1.000000 0.035729 0.125369
0.000000 0.097408 0.139528
0.019771 0.096991 0.139111
0.181346 0.094406 0.136526
0.342920 0.091820 0.133940
0.504495 0.089235 0.131355
0.666070 0.086650 0.128770
0.827645 0.084065 0.126185
0.989220 0.081480 0.123600
1.000000 0.080731 0.122851
0.000000 0.252871 0.130831
0.011074 0.252454 0.130414
0.172649 0.249869 0.127829
0.334224 0.247284 0.125244
0.495798 0.244698 0.122658
0.657424 0.242003 0.119875
0.819606 0.238089 0.114906
0.983343 0.233247 0.107254
1.000000 0.231831 0.104494
0.000000 0.408334 0.122134
0.002377 0.407917 0.121717
0.164147 0.404905 0.118366
0.326612 0.400506 0.112470
0.491484 0.395626 0.103747
0.659241 0.390737 0.092423
0.829355 0.385906 0.079061
1.000000 0.381196 0.064226
1.000000 0.380042 0.059914
0.000000 0.559160 0.102724
0.000008 0.558003 0.099896
0.168684 0.553129 0.087764
0.339524 0.548334 0.073801
0.511999 0.543684 0.058569
0.685582 0.539242 0.042632
0.859744 0.535075 0.026553
1.000000 0.531276 0.010929
1.000000 0.531045 0.007361
0.000000 0.707504 0.057398
0.022849 0.706199 0.052819
0.196704 0.701850 0.036765
0.370945 0.697798 0.020775
0.545045 0.694107 0.005412
0.718475 0.690841 0.000000
0.890707 0.688066 0.000000
1.000000 0.686449 0.000000
1.000000 0.686703 0.000000
0.005766 0.858008 0.004307
0.056045 0.857025 0.000085
0.229100 0.853931 0.000000
0.400764 0.851350 0.000000
0.570510 0.849348 0.000000
0.737808 0.847988 0.000000
0.902449 0.846640 0.000000
1.000000 0.845095 0.000000
1.000000 0.845095 0.000000
0.030835 1.000000 0.000000
0.079483 1.000000 0.000000
0.245786 1.000000 0.000000
0.409505 1.000000 0.000000
0.571194 1.000000 0.000000
0.732769 1.000000 0.000000
0.894344 1.000000 0.000000
1.000000 1.000000 0.000000
1.000000 1.000000 0.000000
0.035879 1.000000 0.000000
0.083780 1.000000 0.000000
0.247619 1.000000 0.000000
0.409334 1.000000 0.000000
0.570908 1.000000 0.000000
0.732483 1.000000 0.000000
0.894058 1.000000 0.000000
1.000000 1.000000 0.000000
1.000000 1.000000 0.000000
0.000000 0.051527 0.305327
0.021410 0.051110 0.304910
0.182985 0.048525 0.302325
0.344560 0.045940 0.299740
0.506135 0.043355 0.297155
0.667709 0.040769 0.294569
0.829284 0.038184 0.291984
0.990859 0.035599 0.289399
1.000000 0.034851 0.288651
0.000000 0.096530 0.302810
0.018893 0.096113 0.302393
0.180468 0.093528 0.299808
0.342042 0.090942 0.297222
0.503617 0.088357 0.294637
0.665192 0.085772 0.292052
0.826767 0.083187 0.289467
0.988342 0.080602 0.286882
1.000000 0.079853 0.286133
0.000000 0.251993 0.294113
0.010196 0.251576 0.293696
0.171771 0.248991 0.291111
0.333346 0.246406 0.288526
0.494920 0.243820 0.285940
0.656678 0.240836 0.282639
0.819115 0.236465 0.276806
0.983910 0.231585 0.268154
1.000000 0.230168 0.265136
0.000000 0.407456 0.285416
0.001501 0.407035 0.284991
0.163484 0.403557 0.280804
0.326497 0.398853 0.273995
0.492409 0.393963 0.264325
0.661025 0.389087 0.252245
0.831819 0.384290 0.238320
1.000000 0.379635 0.223112
1.000000 0.378564 0.218791
0.000000 0.557526 0.263268
0.001266 0.556343 0.260176
0.170736 0.551488 0.247360
0.342191 0.546735 0.232902
0.515101 0.542149 0.217367
0.688940 0.537793 0.201319
0.863178 0.533733 0.185321
1.000000 0.530130 0.170034
1.000000 0.529940 0.166580
0.000000 0.705975 0.216181
0.026065 0.704693 0.211555
0.200111 0.700437 0.195459
0.374363 0.696500 0.179619
0.548295 0.692947 0.164598
0.721377 0.689841 0.150959
0.893082 0.687247 0.139265
1.000000 0.685874 0.130726
1.000000 0.686186 0.129396
0.008996 0.856859 0.163526
0.059189 0.855921 0.159443
0.231831 0.852994 0.146447
0.402903 0.850602 0.135602
0.571876 0.848811 0.127471
0.738246 0.847635 0.122533
0.902027 0.845948 0.119208
1.000000 0.844217 0.117377
1.000000 0.844217 0.117377
0.032137 1.000000 0.126989
0.080525 1.000000 0.125296
0.245926 1.000000 0.121223
0.408742 1.000000 0.118222
0.570316 1.000000 0.115636
0.731891 1.000000 0.113051
0.893466 1.000000 0.110466
1.000000 0.999680 0.108680
1.000000 0.999680 0.108680
0.036306 1.000000 0.124532
0.083966 1.000000 0.123514
0.246881 1.000000 0.120521
0.408456 1.000000 0.117936
0.570030 1.000000 0.115350
0.731605 1.000000 0.112765
0.893180 1.000000 0.110180
1.000000 1.000000 0.108394
1.000000 1.000000 0.108394
0.000000 0.050649 0.468609
0.020532 0.050232 0.468192
0.182107 0.047647 0.465607
0.343682 0.045062 0.463022
0.505257 0.042477 0.460437
0.666832 0.039892 0.457852
0.828406 0.037306 0.455266
0.989981 0.034721 0.452681
1.000000 0.033973 0.451933
0.000000 0.095652 0.466092
0.018015 0.095235 0.465675
0.179590 0.092650 0.463090
0.341164 0.090064 0.460504
0.502739 0.087479 0.457919
0.664314 0.084894 0.455334
0.825889 0.082309 0.452749
0.987464 0.079724 0.450164
1.000000 0.078975 0.449415
0.000000 0.251115 0.457395
0.009318 0.250698 0.456978
0.170893 0.248113 0.454393
0.332468 0.245528 0.451808
0.494043 0.242940 0.449219
0.656009 0.239499 0.445097
0.818973 0.234813 0.438356
0.984812 0.229923 0.428752
1.000000 0.228507 0.425495
0.000000 0.406565 0.448675
0.000684 0.406024 0.448034
0.162894 0.402048 0.442954
0.326756 0.397195 0.435176
0.493645 0.392302 0.424624
0.663060 0.387446 0.411855
0.834473 0.382690 0.397431
1.000000 0.378098 0.381916
1.000000 0.377114 0.377606
0.000000 0.555900 0.423544
0.002814 0.554687 0.420203
0.173017 0.549859 0.406765
0.345026 0.545156 0.391879
0.518311 0.540640 0.376107
0.692344 0.536378 0.360012
0.866598 0.532432 0.344159
1.000000 0.529032 0.329275
1.000000 0.528884 0.325952
0.000000 0.704473 0.374910
0.029366 0.703216 0.370255
0.203541 0.699061 0.354183
0.377744 0.695247 0.338558
0.551446 0.691839 0.323943
0.724120 0.688899 0.310901
0.895237 0.686494 0.299997
1.000000 0.685368 0.292474
1.000000 0.685741 0.291460
0.012124 0.855762 0.322909
0.062213 0.854871 0.318983
0.234381 0.852118 0.306654
0.404799 0.849923 0.296668
0.572940 0.848350 0.289588
0.738405 0.847179 0.285467
0.901285 0.845125 0.282445
1.000000 0.843339 0.280659
1.000000 0.843339 0.280659
0.033131 1.000000 0.289192
0.081241 1.000000 0.287842
0.245772 1.000000 0.284262
0.407864 1.000000 0.281504
0.569438 1.000000 0.278918
0.731013 1.000000 0.276333
0.892588 1.000000 0.273748
1.000000 0.998802 0.271962
1.000000 0.998802 0.271962
0.036448 1.000000 0.287504
0.083853 1.000000 0.286563
0.246003 1.000000 0.283803
0.407578 1.000000 0.281218
0.569152 1.000000 0.278632
0.730727 1.000000 0.276047
0.892302 1.000000 0.273462
1.000000 1.000000 0.271676
1.000000 1.000000 0.271676
0.000000 0.049771 0.631891
0.019654 0.049354 0.631474
0.181229 0.046769 0.628889
0.342804 0.044184 0.626304
0.504379 0.041599 0.623719
0.665954 0.039014 0.621134
0.827528 0.036428 0.618548
0.989103 0.033843 0.615963
1.000000 0.033095 0.615215
0.000000 0.094774 0.629374
0.017137 0.094357 0.628957
0.178712 0.091772 0.626372
0.340287 0.089187 0.623787
0.501861 0.086601 0.621201
0.663436 0.084016 0.618616
0.825011 0.081431 0.616031
0.986586 0.078845 0.613445
1.000000 0.078017 0.612554
0.000000 0.250237 0.620677
0.008440 0.249820 0.620260
0.170015 0.247235 0.617675
0.331590 0.244650 0.615090
0.493220 0.241943 0.612286
0.655415 0.238002 0.607268
0.819205 0.233155 0.599561
0.986026 0.228262 0.589071
1.000000 0.226849 0.585593
0.000000 0.405529 0.611671
0.000000 0.404835 0.610758
0.162435 0.400414 0.604814
0.327367 0.395533 0.596036
0.495173 0.390646 0.584668
0.665326 0.385816 0.571274
0.837296 0.381109 0.556416
1.000000 0.376588 0.540659
1.000000 0.375693 0.536380
0.000000 0.554284 0.583573
0.004631 0.553037 0.579997
0.175507 0.548245 0.566004
0.348008 0.543598 0.550754
0.521606 0.539161 0.534809
0.695774 0.534999 0.518733
0.869982 0.531176 0.503090
1.000000 0.527985 0.488672
1.000000 0.527881 0.485499
0.000000 0.703000 0.533607
0.032732 0.701771 0.528942
0.206975 0.697725 0.512958
0.381067 0.694041 0.497613
0.554480 0.690785 0.483469
0.726684 0.688019 0.471090
0.897151 0.685810 0.461040
1.000000 0.684933 0.454594
1.000000 0.685370 0.453914
0.015128 0.854721 0.482478
0.065096 0.853878 0.478728
0.236729 0.851307 0.467132
0.406433 0.849316 0.458069
0.573680 0.847969 0.452104
0.738274 0.846605 0.448499
0.900407 0.844247 0.445727
1.000000 0.842461 0.443941
1.000000 0.842461 0.443941
0.033798 1.000000 0.451799
0.081642 1.000000 0.450691
0.245311 1.000000 0.447404
0.406986 1.000000 0.444786
0.568561 1.000000 0.442201
0.730135 1.000000 0.439615
0.891710 0.999710 0.437030
1.000000 0.997924 0.435244
1.000000 0.997924 0.435244
0.036290 1.000000 0.450567
0.083426 1.000000 0.449708
0.245125 1.000000 0.447085
0.406700 1.000000 0.444500
0.568274 1.000000 0.441914
0.729849 1.000000 0.439329
0.891424 1.000000 0.436744
1.000000 1.000000 0.434958
1.000000 1.000000 0.434958
0.000000 0.048893 0.795173
0.018777 0.048477 0.794757
0.180351 0.045891 0.792171
0.341926 0.043306 0.789586
0.503501 0.040721 0.787001
0.665076 0.038136 0.784416
0.826650 0.035550 0.781830
0.988225 0.032965 0.779245
1.000000 0.032217 0.778497
0.000000 0.093896 0.792656
0.016259 0.093479 0.792239
0.177834 0.090894 0.789654
0.339409 0.088309 0.787069
0.500983 0.085723 0.784483
0.662558 0.083138 0.781898
0.824133 0.080553 0.779313
0.985757 0.077861 0.776535
1.000000 0.076879 0.775369
0.000000 0.249359 0.783959
0.007562 0.248942 0.783542
0.169137 0.246357 0.780957
0.330712 0.243772 0.778372
0.492479 0.240766 0.775032
0.654937 0.236373 0.769151
0.819792 0.231493 0.760444
0.987534 0.226605 0.749133
1.000000 0.225198 0.745453
0.000000 0.404316 0.774352
0.000000 0.403477 0.773180
0.162342 0.398762 0.766318
0.328309 0.393871 0.756598
0.496972 0.388996 0.744479
0.667801 0.384201 0.730524
0.840269 0.379549 0.715297
1.000000 0.375107 0.699363
1.000000 0.374305 0.695135
0.000000 0.552678 0.743377
0.006697 0.551397 0.739581
0.178183 0.546647 0.725098
0.351117 0.542064 0.709548
0.524968 0.537714 0.693496
0.699208 0.533660 0.677504
0.873310 0.529966 0.662136
1.000000 0.526989 0.648246
1.000000 0.526931 0.645243
0.000000 0.701560 0.692294
0.036140 0.700360 0.687637
0.210392 0.696430 0.671807
0.384312 0.692884 0.656807
0.557373 0.689787 0.643199
0.729047 0.687203 0.631548
0.898805 0.685197 0.622416
1.000000 0.684573 0.617108
1.000000 0.685046 0.616729
0.017988 0.853736 0.642255
0.067817 0.852944 0.638701
0.238854 0.850563 0.627902
0.407784 0.848783 0.619828
0.574102 0.847613 0.614942
0.737835 0.845906 0.611634
0.899529 0.843369 0.609009
1.000000 0.841583 0.607223
1.000000 0.841583 0.607223
0.034158 1.000000 0.614666
0.081765 1.000000 0.613638
0.244533 1.000000 0.610653
0.406108 1.000000 0.608068
0.567683 1.000000 0.605483
0.729257 1.000000 0.602897
0.890832 0.998832 0.600312
1.000000 0.997046 0.598526
1.000000 0.997046 0.598526
0.035816 1.000000 0.613726
0.082672 1.000000 0.612952
0.244247 1.000000 0.610367
0.405822 1.000000 0.607782
0.567396 1.000000 0.605196
0.728971 1.000000 0.602611
0.890546 1.000000 0.600026
1.000000 1.000000 0.598240
1.000000 1.000000 0.598240
0.000000 0.048015 0.958455
0.017899 0.047599 0.958039
0.179473 0.045013 0.955453
0.341048 0.042428 0.952868
0.502623 0.039843 0.950283
0.664198 0.037258 0.947698
0.825772 0.034672 0.945112
0.987347 0.032087 0.942527
1.000000 0.031339 0.941778
0.000000 0.093018 0.955938
0.015381 0.092601 0.955521
0.176956 0.090016 0.952936
0.338531 0.087431 0.950351
0.500105 0.084845 0.947765
0.661680 0.082260 0.945180
0.823255 0.079675 0.942595
0.985009 0.076697 0.939304
1.000000 0.075570 0.937877
0.000000 0.248481 0.947241
0.006684 0.248064 0.946824
0.168259 0.245479 0.944239
0.329836 0.242890 0.941647
0.491815 0.239421 0.937475
0.654816 0.234721 0.930681
0.820711 0.229831 0.921027
0.989313 0.224955 0.908959
1.000000 0.223555 0.905096
0.000000 0.402938 0.936733
0.000000 0.401960 0.935315
0.162621 0.397103 0.927481
0.329563 0.392211 0.916883
0.499020 0.387355 0.904077
0.670465 0.382602 0.889627
0.843369 0.378014 0.874097
1.000000 0.373657 0.858050
1.000000 0.372952 0.853893
0.000000 0.551086 0.902979
0.008990 0.549769 0.898977
0.181027 0.545069 0.884069
0.354331 0.540558 0.868285
0.528374 0.536300 0.852190
0.702627 0.532362 0.836347
0.876561 0.528806 0.821319
1.000000 0.526047 0.808021
1.000000 0.526038 0.805205
0.000000 0.700155 0.850993
0.039572 0.698986 0.846363
0.213770 0.695179 0.830752
0.387458 0.691779 0.816161
0.560107 0.688849 0.803154
0.731189 0.686454 0.792296
0.900176 0.684659 0.784149
1.000000 0.684243 0.779955
1.000000 0.684626 0.779666
0.020684 0.852811 0.802263
0.070356 0.852072 0.798923
0.240737 0.849888 0.788986
0.408830 0.848327 0.781966
0.574246 0.847151 0.777882
0.737076 0.845076 0.774876
0.898651 0.842491 0.772291
1.000000 0.840705 0.770505
1.000000 0.840705 0.770505
0.034239 1.000000 0.777627
0.081595 1.000000 0.776683
0.243655 1.000000 0.773935
0.405230 1.000000 0.771350
0.566805 1.000000 0.768765
0.728379 1.000000 0.766179
0.889954 0.997954 0.763594
1.000000 0.996168 0.761808
1.000000 0.996168 0.761808
0.035023 1.000000 0.776983
0.081794 1.000000 0.776234
0.243369 1.000000 0.773649
0.404944 1.000000 0.771064
0.566519 1.000000 0.768479
0.728093 1.000000 0.765893
0.889668 1.000000 0.763308
1.000000 1.000000 0.761522
1.000000 1.000000 0.761522
0.000000 0.047409 1.000000
0.017292 0.046992 1.000000
0.178867 0.044407 1.000000
0.340442 0.041822 1.000000
0.502016 0.039236 1.000000
0.663591 0.036651 1.000000
0.825166 0.034066 1.000000
0.986743 0.031477 1.000000
1.000000 0.030627 1.000000
0.000000 0.092411 1.000000
0.014775 0.091995 1.000000
0.176349 0.089409 1.000000
0.337924 0.086824 1.000000
0.499499 0.084239 1.000000
0.661074 0.081654 1.000000
0.822649 0.079067 1.000000
0.984603 0.075626 1.000000
1.000000 0.074357 1.000000
0.000000 0.247874 1.000000
0.006078 0.247458 1.000000
0.167653 0.244873 1.000000
0.329287 0.242152 1.000000
0.491480 0.238171 1.000000
0.655297 0.233291 1.000000
0.822127 0.228355 1.000000
0.991475 0.223443 1.000000
1.000000 0.222036 1.000000
0.000000 0.401657 1.000000
0.000000 0.400571 1.000000
0.163465 0.395655 1.000000
0.331272 0.390721 1.000000
0.501406 0.385834 1.000000
0.673340 0.381064 1.000000
0.846577 0.376505 1.000000
1.000000 0.372241 1.000000
1.000000 0.371635 1.000000
0.000000 0.549614 1.000000
0.011575 0.548241 1.000000
0.184034 0.543529 1.000000
0.357631 0.539080 1.000000
0.531804 0.534924 1.000000
0.706008 0.531108 0.995284
0.879715 0.527697 0.980661
1.000000 0.525162 0.968017
1.000000 0.525203 0.965408
0.000000 0.698787 1.000000
0.043005 0.697652 1.000000
0.217089 0.693976 0.989814
0.390484 0.690728 0.975698
0.562660 0.687972 0.963358
0.733090 0.685774 0.953357
0.901245 0.684197 0.946258
1.000000 0.683806 0.942905
1.000000 0.684085 0.942695
0.023194 0.851948 0.962524
0.072693 0.851264 0.959416
0.242356 0.849285 0.950407
0.409551 0.847950 0.944505
0.574098 0.846570 0.940920
0.736198 0.844198 0.938158
0.897773 0.841613 0.935573
1.000000 0.839827 0.933787
1.000000 0.839827 0.933787
0.034024 1.000000 0.940687
0.081116 1.000000 0.939831
0.242777 1.000000 0.937217
0.404352 1.000000 0.934632
0.565927 1.000000 0.932047
0.727501 0.999661 0.929461
0.889076 0.997076 0.926876
1.000000 0.995290 0.925090
1.000000 0.995290 0.925090
0.034145 1.000000 0.940265
0.080916 1.000000 0.939516
0.242491 1.000000 0.936931
0.404066 1.000000 0.934346
0.565641 1.000000 0.931761
0.727215 1.000000 0.929175
0.888790 1.000000 0.926590
1.000000 1.000000 0.924804
1.000000 1.000000 0.924804
0.000000 0.047409 1.000000
0.017292 0.046992 1.000000
0.178867 0.044407 1.000000
0.340442 0.041822 1.000000
0.502016 0.039236 1.000000
0.663591 0.036651 1.000000
0.825166 0.034066 1.000000
0.986751 0.031457 1.000000
1.000000 0.030563 1.000000
0.000000 0.092411 1.000000
0.014775 0.091995 1.000000
0.176349 0.089409 1.000000
0.337924 0.086824 1.000000
0.499499 0.084239 1.000000
0.661074 0.081654 1.000000
0.822656 0.079052 1.000000
0.984676 0.075462 1.000000
1.000000 0.074154 1.000000
0.000000 0.247874 1.000000
0.006078 0.247458 1.000000
0.167653 0.244873 1.000000
0.329319 0.242080 1.000000
0.491574 0.237959 1.000000
0.655687 0.233060 1.000000
0.822789 0.228124 1.000000
0.992355 0.223219 1.000000
1.000000 0.221814 1.000000
0.000000 0.401437 1.000000
0.000000 0.400345 1.000000
0.163960 0.395424 1.000000
0.332019 0.390491 1.000000
0.502353 0.385613 1.000000
0.674435 0.380858 1.000000
0.847741 0.376293 1.000000
1.000000 0.371985 1.000000
1.000000 0.371388 1.000000
0.000000 0.549409 1.000000
0.012582 0.548024 1.000000
0.185171 0.543330 1.000000
0.358792 0.538851 1.000000
0.532920 0.534654 1.000000
0.707029 0.530806 1.000000
0.880607 0.527386 1.000000
1.000000 0.524917 1.000000
1.000000 0.524972 1.000000
0.000000 0.698514 1.000000
0.044092 0.697369 1.000000
0.218064 0.693665 1.000000
0.391334 0.690434 1.000000
0.563362 0.687731 1.000000
0.733592 0.685591 1.000000
0.901495 0.684078 0.993259
1.000000 0.683657 0.990091
1.000000 0.683904 0.989905
0.023884 0.851711 1.000000
0.073328 0.851043 1.000000
0.242772 0.849124 0.997200
0.409697 0.847855 0.991632
0.573998 0.846378 0.988134
0.735944 0.843944 0.985424
0.897519 0.841359 0.982839
1.000000 0.839573 0.981053
1.000000 0.839573 0.981053
0.033905 1.000000 0.987908
0.080917 1.000000 0.987079
0.242523 1.000000 0.984483
0.404098 1.000000 0.981898
0.565673 1.000000 0.979313
0.727247 0.999407 0.976727
0.888822 0.996822 0.974142
1.000000 0.995036 0.972356
1.000000 0.995036 0.972356
0.033890 1.000000 0.987530
0.080662 1.000000 0.986782
0.242237 1.000000 0.984197
0.403812 1.000000 0.981612
0.565386 1.000000 0.979026
0.726961 1.000000 0.976441
0.888536 1.000000 0.973856
1.000000 1.000000 0.972070
1.000000 1.000000 0.972070
